src/images/dist/icons/tech-icon-1.svg

<svg width="39" height="28" viewBox="0 0 39 28" fill="none" xmlns="http://www.w3.org/2000/svg">
<path d="M37.9961 27.4C38.217 27.4 38.3961 27.2209 38.3961 27C38.3961 26.7791 38.217 26.6 37.9961 26.6V27.4ZM29.0715 16.8701H29.4715V16.4701H29.0715V16.8701ZM0.996094 26.6C0.77518 26.6 0.596094 26.7791 0.596094 27C0.596094 27.2209 0.77518 27.4 0.996094 27.4V26.6ZM37.9961 26.6H33.7496V27.4H37.9961V26.6ZM34.1496 27V25.3117H33.3496V27H34.1496ZM34.1496 25.3117C34.1496 24.7657 33.6942 24.3489 33.1649 24.3489V25.1489C33.2815 25.1489 33.3496 25.2361 33.3496 25.3117H34.1496ZM33.1649 24.3489H32.5801V25.1489H33.1649V24.3489ZM32.9801 24.7489V15.1818H32.1801V24.7489H32.9801ZM32.9801 15.1818C32.9801 14.0157 31.9995 13.0935 30.8258 13.0935V13.8935C31.5868 13.8935 32.1801 14.4861 32.1801 15.1818H32.9801ZM30.8258 13.0935H26.7325V13.8935H30.8258V13.0935ZM27.1325 13.4935V5.05195H26.3325V13.4935H27.1325ZM27.1325 5.05195C27.1325 4.50598 26.6771 4.08918 26.1477 4.08918V4.88918C26.2644 4.88918 26.3325 4.97639 26.3325 5.05195H27.1325ZM26.1477 4.08918H23.5748V4.88918H26.1477V4.08918ZM23.9748 4.48918V2.80087H23.1748V4.48918H23.9748ZM23.9748 2.80087C23.9748 2.2549 23.5194 1.8381 22.99 1.8381V2.6381C23.1066 2.6381 23.1748 2.7253 23.1748 2.80087H23.9748ZM22.99 1.8381H18.312V2.6381H22.99V1.8381ZM18.312 1.8381C17.7826 1.8381 17.3272 2.2549 17.3272 2.80087H18.1272C18.1272 2.7253 18.1953 2.6381 18.312 2.6381V1.8381ZM17.3272 2.80087V4.48918H18.1272V2.80087H17.3272ZM17.7272 4.08918H11.5287V4.88918H17.7272V4.08918ZM11.9287 4.48918V1.56277H11.1287V4.48918H11.9287ZM11.9287 1.56277C11.9287 1.01681 11.4733 0.6 10.944 0.6V1.4C11.0606 1.4 11.1287 1.48721 11.1287 1.56277H11.9287ZM8.60494 0.6C8.07562 0.6 7.62018 1.01681 7.62018 1.56277H8.42018C8.42018 1.48721 8.48833 1.4 8.60494 1.4V0.6ZM7.62018 1.56277V4.48918H8.42018V1.56277H7.62018ZM8.02018 4.08918H6.2659V4.88918H8.02018V4.08918ZM6.2659 4.08918C5.73658 4.08918 5.28114 4.50599 5.28114 5.05195H6.08114C6.08114 4.97639 6.14928 4.88918 6.2659 4.88918V4.08918ZM5.28114 5.05195V27H6.08114V5.05195H5.28114ZM26.7325 26.6H5.68114V27.4H26.7325V26.6ZM7.65609 24.5861H10.3592V23.7861H7.65609V24.5861ZM7.65609 19.5212H10.3592V18.7212H7.65609V19.5212ZM7.65609 15.1879H10.3592V14.3879H7.65609V15.1879ZM7.65609 11.0797H10.3592V10.2797H7.65609V11.0797ZM10.3592 6.34026H7.65609V7.14026H10.3592V6.34026ZM11.5287 4.08918H8.02018V4.88918H11.5287V4.08918ZM23.5748 4.08918H17.7272V4.88918H23.5748V4.08918ZM11.9287 27V4.48918H11.1287V27H11.9287ZM32.5801 24.3489H29.0715V25.1489H32.5801V24.3489ZM27.1325 16.8701V13.4935H26.3325V16.8701H27.1325ZM27.502 25.3117V27H28.302V25.3117H27.502ZM27.902 26.6H26.7325V27.4H27.902V26.6ZM27.1325 27V16.8701H26.3325V27H27.1325ZM26.7325 17.2701H29.0715V16.4701H26.7325V17.2701ZM28.6715 16.8701V24.7489H29.4715V16.8701H28.6715ZM29.0715 24.3489H28.4868V25.1489H29.0715V24.3489ZM28.4868 24.3489C27.9575 24.3489 27.502 24.7657 27.502 25.3117H28.302C28.302 25.2361 28.3702 25.1489 28.4868 25.1489V24.3489ZM33.7496 26.6H27.902V27.4H33.7496V26.6ZM5.68114 26.6H0.996094V27.4H5.68114V26.6ZM8.60494 1.4H10.944V0.6H8.60494V1.4Z" fill="#BE3D3D"/>
</svg>

<svg width="39" height="28" fill="none" xmlns="http://www.w3.org/2000/svg"><path d="M37.996 27.4a.4.4 0 000-.8v.8zm-8.925-10.53h.4v-.4h-.4v.4zM.997 26.6a.4.4 0 000 .8v-.8zm37 0H33.75v.8h4.246v-.8zm-3.846.4v-1.688h-.8V27h.8zm0-1.688c0-.546-.456-.963-.985-.963v.8c.117 0 .185.087.185.163h.8zm-.985-.963h-.585v.8h.585v-.8zm-.185.4v-9.567h-.8v9.567h.8zm0-9.567c0-1.166-.98-2.088-2.154-2.088v.8c.76 0 1.354.592 1.354 1.288h.8zm-2.154-2.088h-4.093v.8h4.093v-.8zm-3.694.4V5.051h-.8v8.441h.8zm0-8.442c0-.546-.455-.963-.984-.963v.8c.116 0 .184.087.184.163h.8zm-.984-.963h-2.573v.8h2.573v-.8zm-2.173.4V2.801h-.8v1.688h.8zm0-1.688c0-.546-.456-.963-.985-.963v.8c.117 0 .185.087.185.163h.8zm-.985-.963h-4.678v.8h4.678v-.8zm-4.678 0c-.53 0-.985.417-.985.963h.8c0-.076.068-.163.185-.163v-.8zm-.985.963v1.688h.8V2.801h-.8zm.4 1.288H11.53v.8h6.198v-.8zm-5.798.4V1.563h-.8v2.926h.8zm0-2.926c0-.546-.456-.963-.985-.963v.8c.117 0 .185.087.185.163h.8zM8.605.6c-.53 0-.985.417-.985.963h.8c0-.076.068-.163.185-.163V.6zm-.985.963v2.926h.8V1.563h-.8zm.4 2.526H6.266v.8H8.02v-.8zm-1.754 0c-.53 0-.985.417-.985.963h.8c0-.076.068-.163.185-.163v-.8zm-.985.963V27h.8V5.052h-.8zM26.733 26.6H5.68v.8h21.052v-.8zM7.655 24.586h2.703v-.8H7.656v.8zm0-5.065h2.703v-.8H7.656v.8zm0-4.333h2.703v-.8H7.656v.8zm0-4.108h2.703v-.8H7.656v.8zm2.703-4.74H7.656v.8h2.703v-.8zm1.17-2.25H8.02v.8h3.509v-.8zm12.046 0h-5.848v.8h5.848v-.8zM11.929 27V4.49h-.8V27h.8zm20.651-2.651h-3.508v.8h3.508v-.8zm-5.447-7.479v-3.377h-.8v3.377h.8zm.369 8.442V27h.8v-1.688h-.8zm.4 1.288h-1.17v.8h1.17v-.8zm-.77.4V16.87h-.8V27h.8zm-.4-9.73h2.34v-.8h-2.34v.8zm1.94-.4v7.879h.8V16.87h-.8zm.4 7.479h-.585v.8h.585v-.8zm-.585 0c-.53 0-.985.417-.985.963h.8c0-.076.068-.163.185-.163v-.8zM33.75 26.6h-5.848v.8h5.848v-.8zm-28.069 0H.996v.8h4.685v-.8zM8.605 1.4h2.339V.6h-2.34v.8z" fill="#BE3D3D"/></svg>
